docs/img/viber.svg

<svg width="16" height="16" viewBox="0 0 16 16" fill="none" xmlns="http://www.w3.org/2000/svg">
<path fill-rule="evenodd" clip-rule="evenodd" d="M13.6687 2.32548C12.9307 1.58614 12.0527 0.999906 11.0854 0.60073C10.1181 0.201554 9.08084 -0.0026233 8.03371 2.54441e-05C3.64281 2.54441e-05 0.0683305 3.55666 0.0665556 7.92847C0.0665556 9.32569 0.433055 10.6893 1.12967 11.8923L0 16L4.22318 14.8969C5.39135 15.5298 6.70011 15.8616 8.03016 15.8622H8.03371C12.4237 15.8622 15.9982 12.3056 16 7.93377C16.003 6.89203 15.7985 5.86002 15.3984 4.8974C14.9982 3.93478 14.4104 3.06063 13.6687 2.32548ZM8.03371 14.5242H8.03104C6.84504 14.5243 5.68086 14.2067 4.66067 13.6048L4.41929 13.4617L1.91325 14.1161L2.58147 11.6847L2.4244 11.4356C1.76132 10.385 1.4103 9.16917 1.41187 7.92847C1.41364 4.29501 4.3838 1.33895 8.03637 1.33895C8.90625 1.33703 9.76788 1.50683 10.5714 1.83853C11.3749 2.17023 12.1043 2.65725 12.7174 3.27138C13.3339 3.88259 13.8224 4.60933 14.1549 5.4096C14.4875 6.20986 14.6573 7.06779 14.6547 7.93377C14.6529 11.5672 11.6827 14.5242 8.03371 14.5242ZM11.6659 9.588C11.4662 9.4882 10.4883 9.00951 10.3055 8.94327C10.1236 8.87703 9.99133 8.84435 9.85822 9.04218C9.72511 9.24002 9.34352 9.68603 9.22727 9.81851C9.11102 9.95099 8.99477 9.96689 8.79599 9.86797C8.59721 9.76905 7.95561 9.55974 7.1951 8.88498C6.6032 8.35947 6.20387 7.71121 6.08762 7.51249C5.97137 7.31377 6.0752 7.2069 6.17547 7.10799C6.2651 7.01967 6.37425 6.87659 6.47364 6.76089C6.57303 6.64519 6.60587 6.56305 6.67242 6.43057C6.73898 6.29809 6.70614 6.1824 6.65556 6.08348C6.60587 5.98368 6.20742 5.00863 6.04147 4.61207C5.88085 4.22788 5.71668 4.27911 5.59422 4.27381C5.46739 4.26865 5.34046 4.26629 5.21352 4.26674C5.11258 4.2693 5.01327 4.29259 4.9218 4.33515C4.83033 4.3777 4.74868 4.4386 4.68196 4.51404C4.49916 4.71276 3.98535 5.19145 3.98535 6.1665C3.98535 7.14155 4.69883 8.08392 4.79821 8.2164C4.8976 8.34888 6.2021 10.3493 8.19876 11.2078C8.67441 11.4118 9.04535 11.5337 9.33376 11.6255C9.8103 11.7766 10.2442 11.7545 10.5877 11.7041C10.9701 11.6476 11.7653 11.2254 11.9312 10.7626C12.0971 10.2999 12.0971 9.9033 12.0475 9.82028C11.9978 9.73726 11.8638 9.68692 11.6659 9.588Z" fill="#E4E5EA"/>
</svg>

<svg width="16" height="16" fill="none" xmlns="http://www.w3.org/2000/svg"><path fill-rule="evenodd" clip-rule="evenodd" d="M13.669 2.325A7.948 7.948 0 008.034 0C3.643 0 .068 3.557.067 7.928c0 1.398.366 2.761 1.063 3.964L0 16l4.223-1.103a8 8 0 003.807.965h.004c4.39 0 7.964-3.556 7.966-7.928a7.852 7.852 0 00-2.331-5.609zm-5.635 12.2H8.03a6.632 6.632 0 01-3.37-.92l-.242-.143-2.506.654.668-2.431-.157-.25a6.555 6.555 0 01-1.012-3.507c.002-3.633 2.972-6.59 6.624-6.59a6.606 6.606 0 014.681 1.933 6.55 6.55 0 011.938 4.663c-.002 3.633-2.972 6.59-6.621 6.59zm3.632-4.937c-.2-.1-1.178-.578-1.36-.645-.182-.066-.315-.099-.448.1a12.25 12.25 0 01-.63.776c-.117.132-.233.148-.432.049-.199-.099-.84-.308-1.6-.983a5.972 5.972 0 01-1.108-1.373c-.117-.198-.013-.305.087-.404.09-.088.2-.231.299-.347.099-.116.132-.198.198-.33.067-.133.034-.249-.016-.348-.05-.1-.449-1.074-.615-1.47-.16-.385-.324-.334-.447-.34a8.614 8.614 0 00-.38-.006.736.736 0 00-.532.247c-.183.199-.697.677-.697 1.652 0 .976.714 1.918.813 2.05.1.133 1.404 2.133 3.4 2.992.476.204.847.326 1.136.418.476.15.91.129 1.254.078.382-.056 1.177-.479 1.343-.941.166-.463.166-.86.117-.943-.05-.083-.184-.133-.382-.232z" fill="#E4E5EA"/></svg>
